X: 41946
T: Walking On The Moon
R: reel
M: 4/4
K: Amajor
|:ef|a2 a2 feec|e2 e2 cBBc|A2 A2 ce e2|fe e2 cefg|
a2 a2 feec|e2 a2 cBBc|A2 A2 ceec|1 BccB A3e:|2 BccB A3=c||
|:^c2 ^c2 BAAc|e2 e2 feef|a2 a2 feec|feec B2 =c2|
^c2 ^c2 BAAc|e2 e2 feef|a2 a2 feec|BccB A2 A2:|

